X:58
T:Morgiana. 2voices. Dix.58
M:6/8
L:1/8
Q:1/4=110
S:Anon. MS dated 1811, from Dixon collection, Holton le Moor, Lincs.
R:jig
N:Repeat signs added at start
N:Tune incomplete in MS
O:England;Lincolnshire;Holton le Moor
Z:vmp.R.Greig 2012 <http://www.village-music-project.org.uk>
K:F
[V:1]|:c|cAc {fg}a2g|fedc2d|cAc fca|bag fed|!
[V:2]|:z|[A,3F,3] [C2F,2]B,|[A,2F,2]B, [A,2F,2]B,|[A,3F,3] [A,3F,3]|E,2G, C2B,|!
[V:1]cAc {fg}a2g|{g}fedc2d|cAc fga|{a}gfe f2″rpt added”:|!
[V:2][A,3F,3] [C2F,2]B,|[A,2F,2]B, [A,2F,2]B,|[F,3D,3][A,3D,3]|G,2[B,C,][A,2F,2]:|
[V:1]|:”rpt added”a|fag fed|c2cb2c|”_Tune incomplete in MS”a2c
[V:2]|:z|E,G,C D,F,=B,|C,G,C E,G,C|

